!!!!SEGMENT: pl-wtm--r-2298_troschel-wilhelm--requiem-aeternam.krn
!!!cenid: 18xx:2258
!!!COM: Troschel, Wilhelm
!!!COM-rismid: pe30024099
!!!CDT: 1823/08/23-1887/03/02
!!!CNT: Polish
!!!OTL: Requiem aeternam
!!!PDT:
!!!AGN: Sacred; Hymn
!!!SMS-siglum: PL-Wtm
!!!SMS-shelfmark: R 2298
!!!SMS-shelfwork: W
!!!SMS-variant:
!!!SMS-altvar:
!!!NIFC-rismid: 1001114015
!!!URL-scan: http://repozytorium.nifc.pl/skany/pl-wtm-nut--r2298
!!!ONB-nifc:
!!!key:
**kern	**dynam	**kern	**text	**dynam
*part2	*part2	*part1	*part1	*part1
*staff2	*	*staff1	*staff1	*
*Iempty	*	*Itenor	*	*
*I"Basſi	*	*I"Tenori	*	*
*	*	*ITrd7c12	*	*
*clefF4	*	*clefG2	*	*
*k[b-e-a-d-g-]	*	*k[b-e-a-d-g-]	*	*
*b-:	*	*b-:	*	*
*M4/4	*	*M4/4	*	*
*met(c)	*	*met(c)	*	*
=1	=1	=1	=1	=1
*2\right	*	*2\right	*	*
*^	*	*^	*	*
!	!	!	!LO:TX:t=P:problem:all\right:global	!	!	!
!	!	!	!LO:TX:t=P:problem:brak przenośnika oktawowego w tenorze	!	!	!
!LO:TX:t=P:problem:all\right:global	!	!	!LO:TX:a:t=Largo	!	!	!
2.D-/	2.BB-\	.	2.B-/	2.F\	Re-	pp
4D-/	4BB-\	.	4B-/	4F\	-qui-	.
=2	=2	=2	=2	=2	=2	=2
2.C/	2.FF\	.	2.An/	2.F\	-em	.
4C/	4FF\	.	4A/	4F\	ae-	.
=3	=3	=3	=3	=3	=3	=3
(2D-/	1BB-	.	(2B-/	2F\	-ter-	.
2En/)	.	.	2d-/)	2Gn\	.	.
=4	=4	=4	=4	=4	=4	=4
2.F/	2.FF;\	.	2.c;/	2.An\	-nam	.
4r	4ryy	.	4r	4ryy	.	.
!!LO:LB:g=original
=5	=5	=5	=5	=5	=5	=5
2F/	2E-\	<	2c/	2An\	Do-	.
2F/	2D-\	.	2B-/	2B-\	-na	.
=6	=6	=6	=6	=6	=6	=6
2F/	2C\	[	(2e-/	2An\	e-	.
2F/	2BB-\	.	2d-/)	2B-\	-is	.
=7	=7	=7	=7	=7	=7	=7
2E-/	2E-\	.	2c/	2.B-\	Do-	.
4En/	4En\	>	4d-/	.	.	.
((4E/	4E\	]	4c/	(4B-\	-mi-	.
=8	=8	=8	=8	=8	=8	=8
2.F;</))	2.F\	.	2.c;/	2.An\)	-ne.	.
4r	4ryy	.	4r	4ryy	.	.
!!LO:LB:g=original
=9	=9	=9	=9	=9	=9	=9
4.G-/	4.E-\	.	4.c/	4.An\	Re-	.
8G-/	8E-\	<	8c/	8A\	-qui-	.
4G-/	4E-\	.	4d-/	4A\	-em	.
4F/	4D-\	.	4d-/	4A\	ae-	.
=10	=10	=10	=10	=10	=10	=10
2G-/	2C^\	[	(2f^/	2B-\	-ter-	.
2G-/	2C\	.	2e-/)	2B-\	-nam	.
=11	=11	=11	=11	=11	=11	=11
4.E-/	4.C\	p	4.An/	4.G-\	Re-	.
8E-/	8C\	>	8A/	8G-\	-qui-	.
4E-/	4C\	]	4A/	4G-\	-em	.
!	!	!	!	!	!	!LO:HP:t=dim.
4E-\	4BB-\	.	4B-/	4G-\	ae-	>
=12	=12	=12	=12	=12	=12	=12
2E-/	2AAn^\	.	(2d-^/	2G-\	-ter-	.
2E-/	2AA\	.	2c/)	2G-\	-nam	.
!!LO:LB:g=original
=13	=13	=13	=13	=13	=13	=13
2D-/	2BB-\	.	2d-/	2F\	do-	.
!	!	!	!	!	!	!LO:DY:a
2En/	2GG-\	<	2d-/	2B-\	-na	<
=14	=14	=14	=14	=14	=14	=14
4F/	2.FF\	[	(4d-/	2.B-\	e-	[
(4D-/	.	.	4B-/	.	.	.
4G-/)	.	.	4e-/	.	.	.
4F/	4FF\	.	4d-/)	4B-\	-is	.
=15	=15	=15	=15	=15	=15	=15
!	!	!	!	!	!	!LO:DY:b
2En/	2FF\	.	2c/	2B-\	Do-	p
!	!	!	!	!	!	!LO:DY:a
(2E-X/	(2FF\	>	(2d-/	(2An\	-mi-	>
=16	=16	=16	=16	=16	=16	=16
2.D-/)	2.BB-;\)	]	2.B-;/)	2.F\)	-ne.	]
4r	4ryy	.	4r	4ryy	.	.
*v	*v	*	*	*	*	*
!!LO:PB:g=original
=17	=17	=17	=17	=17	=17
4r	.	4r	4ryy	.	.
*^	*	*	*	*	*
4F/	4D-^\	.	4A-^/	4A-\	Et	.
4F/	4D-^\	.	4A-^/	4A-\	lux	.
4F/	4D-^\	.	4B-^/	4A-\	per-	.
=18	=18	=18	=18	=18	=18	=18
4.E-/	4.AA-^\	.	4.c^/	4.A-\	-pe-	.
8E-/	8AA-^\	.	8c^/	8A-\	-tu-	.
2E-/	2AA-^\	.	2c^/	2A-\	-a	.
*v	*v	*	*	*	*	*
=19	=19	=19	=19	=19	=19
4r	.	4r	4ryy	.	.
*^	*	*	*	*	*
4G-X/	4AA-^\	<	4e-^/	4c\	et	.
4G-/	4AA-^\	.	4e-^/	4c\	lux	.
4G-/	4AA-^\	.	4en^/	4c\	per-	.
=20	=20	=20	=20	=20	=20	=20
4.F/	4.D-^\	[	4.f^/	4.d-\	-pe-	.
8G-/	8E-^\	.	8f^/	8d-\	-tu-	.
4A-/	4F^\	.	2f^/	2d-\	-a	.
4B-/	4G-^\	.	.	.	.	.
!!LO:LB:g=original
=21	=21	=21	=21	=21	=21	=21
!	!	!	!	!	!	!LO:DY:b
2c-X/	2A-\	.	2f/	2dn\	lu-	f
4c-/	4A-\	.	(4g-/	4d\	-ce-	.
!	!	!	!	!LO:SIC:v:s=4c-\	!	!
4c-/	4A-\	.	4dn/)	4c\	-at	.
=22	=22	=22	=22	=22	=22	=22
2B-/	2G-\	.	4.f/	2B-\	e-	.
.	.	.	8e-/	.	.	.
2B-/	2F\	.	2d-/	2B-\	-is	.
=23	=23	=23	=23	=23	=23	=23
!	!	!	!	!	!	!LO:DY:b
2F/	2FF\	.	(2d-/	2B-\	lu-	p
4E-/	4FF\	.	4c/	4An\	-ce-	.
!	!	!	!	!	!	!LO:HP:t=dim&colon;
4D-/	4FF\	.	4B-/)	4B-\	-at	>
=24	=24	=24	=24	=24	=24	=24
(2D-/	2FF\	>	(2B-/	(2En\	e-	.
2C/)	2FF;\	]	2An;/)	2F\)	-is	.
!!LO:LB:g=original
=25	=25	=25	=25	=25	=25	=25
!	!	!	!	!	!	!LO:DY:b
2.D-/	2.BB-\	.	2.B-/	2.F\	re-	pp
4D-/	4BB-\	.	4B-/	4F\	-qui-	.
=26	=26	=26	=26	=26	=26	=26
2.C/	2.FF\	.	2.An/	2.F\	-em	.
4C/	4FF\	.	4A/	4F\	ae-	.
=27	=27	=27	=27	=27	=27	=27
(2D-/	1BB-	.	(2B-/	2F\	-ter-	.
2En/)	.	.	2d-/)	2Gn\	.	.
=28	=28	=28	=28	=28	=28	=28
2.F/	2.FF;\	.	2.c;/	2.An\	-nam	.
4r	4ryy	.	4r	4ryy	.	.
!!LO:LB:g=original
=29	=29	=29	=29	=29	=29	=29
2F/	2E-\	<	2c/	2An\	do-	.
2F/	2D-\	.	2B-/	2B-\	-na	.
=30	=30	=30	=30	=30	=30	=30
2F/	(2C\	[	(2e-/	2An\	e-	.
2F/	2BB-\)	.	2d-/)	2B-\	-is	.
=31	=31	=31	=31	=31	=31	=31
2G-/	2E-\	>	2.c/	2B-\	Do-	.
4F/	4F\	.	.	4An\	.	.
(4E-/	(4FF\	.	(4d-/	(4A\	-mi-	.
=32	=32	=32	=32	=32	=32	=32
2.D-/)	2.BB-\)	]	2.B-/)	2.F\)	-ne!	.
4r	4r	.	4r	4ryy	.	.
!!LO:PB:g=original
=33	=33	=33	=33	=33	=33	=33
!	!	!	!	!	!	!LO:DY:b
2E-/	2EE-\	.	2B-/	2G-\	Re-	ppp
!	!	!	!LO:TX:t=ri-tar-dan-do	!	!	!
2E-/	2GG-\	.	2B-/	(2G-\	-qui-	.
=34	=34	=34	=34	=34	=34	=34
2.D-,/	2.BB-\	.	2.B-,/	2.F\)	-em	.
4D-/	4BB-\	>	4B-/	4F\	ae-	.
=35	=35	=35	=35	=35	=35	=35
!LO:TX:b:t=perdendosi	!	!	!	!	!	!
2E-/	2EE-\	.	1B-	2G-\	-ter-	.
(2C/	(2GG-\	.	.	(2E-\	.	.
=36	=36	=36	=36	=36	=36	=36
1Dn)	1BB-;)	]	1B-;	1F)	-nam	.
*v	*v	*	*	*	*	*
*	*	*v	*v	*	*
==	==	==	==	==
*-	*-	*-	*-	*-
!!!system-decoration: {s1,s2}
!!!RDF**kern: > = above
!!!RDF**kern: < = below
!!!AIN: 1 empty 1 tenor
!!!ENC: Anastazja Marusiak
!!!END: 2021-05-25
